X: 693
T: The maid at the churn
C: anon.
O: Ireland
B: Francis O'Neill: "The Dance Music of Ireland" (1907) no. 693
R: Reel
Z: Transcribed by Frank Nordberg - http://www.musicaviva.com
F: http://www.musicaviva.com/abc/tunes/ireland/oneill-1001/oneill-1001-069
3.abc
M: C|
L: 1/8
K: G
(GF) "^segno" |DGGA BGAF|DEFd cFAF|DGGA Bcdg|(3(fed) (3(cBA) BGAF|DGGA BG
AF|DEFd cFAF|DGGA Bcdg|(3(fed) (3(cBA) BGG2 H ||gd (3.g.g.g gbag|fc (3.c.
c.c fgaf|
gd (3.g.g.g gbag|(3(fed) (3(cBA) BGBd|gd (3.g.g.g gbag|fdef gfga|(3(bag)
(3(gfe) (3(fed) (3(efg)|(3(fed) (3(cBA) BGAF "^segno" |]
W:
W:
W: From Musica Viva - http://www.musicaviva.com
W: the Internet center for free sheet music downloads.


